svg/logo/linux_line.svg

<?xml version="1.0" encoding="UTF-8"?>
<svg width="24px" height="24px" viewBox="0 0 24 24" version="1.1" xmlns="http://www.w3.org/2000/svg" xmlns:xlink="http://www.w3.org/1999/xlink">
    <title>linux_line</title>
    <g id="Icon" stroke="none" stroke-width="1" fill="none" fill-rule="evenodd">
        <g id="Logo" transform="translate(-720.000000, -192.000000)">
            <g id="linux_line" transform="translate(720.000000, 192.000000)">
                <path d="M24,0 L24,24 L0,24 L0,0 L24,0 Z M12.5935,23.2578 L12.5819,23.2595 L12.5109,23.295 L12.4919,23.2987 L12.4767,23.295 L12.4057,23.2595 C12.3958,23.2564 12.387,23.259 12.3821,23.2649 L12.378,23.2758 L12.3609,23.7031 L12.3659,23.7235 L12.3769,23.7357 L12.4805,23.8097 L12.4953,23.8136 L12.5071,23.8097 L12.6107,23.7357 L12.6233,23.7197 L12.6267,23.7031 L12.6096,23.2758 C12.6076,23.2657 12.601,23.2593 12.5935,23.2578 Z M12.8584,23.1453 L12.8445,23.1473 L12.6598,23.2397 L12.6499,23.2499 L12.6472,23.2611 L12.6651,23.6906 L12.6699,23.7034 L12.6784,23.7105 L12.8793,23.8032 C12.8914,23.8069 12.9022,23.803 12.9078,23.7952 L12.9118,23.7812 L12.8777,23.1665 C12.8753,23.1546 12.8674,23.147 12.8584,23.1453 Z M12.143,23.1473 C12.1332,23.1424 12.1222,23.1453 12.1156,23.1526 L12.1099,23.1665 L12.0758,23.7812 C12.0751,23.7927 12.0828,23.8019 12.0926,23.8046 L12.1083,23.8032 L12.3092,23.7105 L12.3186,23.7024 L12.3225,23.6906 L12.3404,23.2611 L12.3372,23.2485 L12.3278,23.2397 L12.143,23.1473 Z" id="MingCute" fill-rule="nonzero"></path>
                <path d="M12.0001,2 C14.2089,2 16.0001,3.78989 16.0001,5.99931 L16.0001,7 C16.0000188,8.22439687 16.5349941,9.31051082 17.1555959,10.3335741 L17.446471,10.8015541 L17.446471,10.8015541 L17.9584859,11.6068849 C18.3812667,12.2824012 18.7764556,12.9824444 18.9702,13.7575 C19.2315,14.8025 19.2454,15.9139 18.8952,16.9406 L18.9747,17.2371 L19.915,17.78 C20.2151,17.9533 20.4042,18.2696 20.4145,18.616 C20.4249,18.9624 20.2552,19.2895 19.966,19.4805 L16.6512,21.6691 C16.0794,22.0467 15.3433,22.0687 14.7499,21.7261 C14.4068,21.528 14.1454,21.2276 13.9939,20.8772 C13.5679,20.9581 13.135,21 12.7034,21 L12.2967,21 C11.8789,21 11.4599,20.9607 11.0471,20.8849 C10.9991,20.9956 10.9397,21.1024 10.8688,21.2036 C10.4758,21.7649 9.79939,22.0559 9.1216,21.9554 L5.19243,21.3728 C4.8496,21.3219 4.55754,21.0972 4.42055,20.7788 C4.28356,20.4605 4.32118,20.0939 4.51996,19.81 L5.14275,18.9206 L4.9691,17.9358 C4.87319,17.3919 5.23636,16.8732 5.78026,16.7773 L6.03868,16.7317 C5.75483,15.7638 5.78664,14.7305 6.02992,13.7575 C6.22793444,12.9654111 6.5650121,12.298484 6.88689236,11.7365808 L7.15547,11.2802 C7.5767,10.5745 8.00006,9.84723 8.00006,9 L8.00006,5.99994 C8.00006,3.79073 9.79098,2 12.0001,2 Z M8.09464,18.1805 C7.975448,18.31482 7.8222912,18.414516 7.65149728,18.4691432 L7.52035,18.5015 L7.11243,18.5734 L7.18436,18.9814 C7.215848,19.15996 7.1979472,19.342104 7.13484064,19.508888 L7.0791,19.6308 L9.0372,19.9212 L8.09464,18.1805 Z M17.0429,17.7549 L16.6428,17.8621 L16.5102352,17.8881808 C16.3768048,17.9051632 16.2416752,17.8949728 16.1129248,17.8587112 L15.9866,17.8138 L15.868,19.7898 L17.52,18.6991 L17.4179304,18.6121488 C17.3221536,18.5187672 17.2458024,18.4068168 17.1938016,18.2827992 L17.1501,18.155 L17.0429,17.7549 Z M14.5791,9.7225 C14.2628,10.0288 13.9242,10.3068 13.6,10.55 C13.2142857,10.8392857 12.8313265,11.0921939 12.4994825,11.2973907 L12.1289,11.52 L12.1289,11.52 C11.9052,11.6505 11.6796,11.7779 11.4481,11.894 C11.0631,12.0865 10.5969,12.0111 10.2925,11.7067 C10.1663,11.578 10.0456,11.4439 9.92824,11.307 L9.72215556,11.0589185 C9.68524444,11.0130778 9.64721,10.9650667 9.60829,10.915 C9.430922,11.34364 9.2155892,11.72588 9.0105732,12.074264 L8.8595,12.3294 C8.47114,12.9851 8.14832,13.5301 7.9702,14.2425 C7.87977,14.6042 7.82547,14.9845 7.8393,15.3579 C7.97225,15.3053 8.11695,15.281 8.26426,15.2895 C8.56701875,15.306825 8.84301891,15.4602781 9.01784555,15.7025629 L9.08636,15.8117 L10.6723,18.7405 C11.0908833,18.8798333 11.540925,18.9671528 12.0117769,18.9923889 L12.2967,19 L12.7034,19 C13.02035,19 13.3291438,18.971875 13.6266594,18.9185781 L13.9203,18.857 L14.0867,16.0861 C14.1074,15.7401 14.3058,15.4296 14.6111,15.2654 C14.87815,15.121725 15.1935875,15.1079766 15.4693848,15.2228818 L15.5849,15.28 L16.5252,15.8229 L17.135,15.6595 C17.1984,15.1876 17.145,14.7029 17.0299,14.2425 C16.888825,13.678275 16.5836688,13.159275 16.2653781,12.6628875 L15.9483,12.1732 L15.9483,12.1732 C15.443,11.3849 14.9428,10.5883 14.5791,9.7225 Z M11.3350328,8.12497616 C11.1846098,8.10949635 11.0324746,8.12833037 10.8901878,8.18021207 L10.7855,8.2253 L10.3864,8.42482 L10.5221741,8.68646519 C10.6175222,8.85970889 10.7219667,9.03016 10.8321,9.1953 C10.9659,9.39604 11.1002,9.57737 11.2226,9.73271 C11.5612,9.53158 11.9828,9.26287 12.4,8.95 L12.6759625,8.73554375 L12.6759625,8.73554375 L12.9382,8.51532 L11.4752,8.14958 L11.3350328,8.12497616 Z M12.0001,4 C10.8955,4 10.0001,4.89539 10.0001,5.99994 L10.0001,6.38465 C10.6141,6.10791 11.3046,6.04538 11.9603,6.2093 L14,6.71922 L14.0001,5.9993 C14.0001,4.89504 13.1049,4 12.0001,4 Z" id="形状" fill="#09244B"></path>
            </g>
        </g>
    </g>
</svg>

<svg xmlns="http://www.w3.org/2000/svg" width="24" height="24"><g fill="none" fill-rule="evenodd"><path d="M24 0v24H0V0h24ZM12.594 23.258l-.012.002-.071.035-.02.004-.014-.004-.071-.036c-.01-.003-.019 0-.024.006l-.004.01-.017.428.005.02.01.013.104.074.015.004.012-.004.104-.074.012-.016.004-.017-.017-.427c-.002-.01-.009-.017-.016-.018Zm.264-.113-.014.002-.184.093-.01.01-.003.011.018.43.005.012.008.008.201.092c.012.004.023 0 .029-.008l.004-.014-.034-.614c-.003-.012-.01-.02-.02-.022Zm-.715.002a.023.023 0 0 0-.027.006l-.006.014-.034.614c0 .012.007.02.017.024l.015-.002.201-.093.01-.008.003-.011.018-.43-.003-.012-.01-.01-.184-.092Z"/><path fill="#09244B" d="M12 2a4 4 0 0 1 4 4v1c0 1.224.535 2.31 1.156 3.334l.29.468.512.805c.423.675.818 1.375 1.012 2.15.262 1.046.275 2.157-.075 3.184l.08.296.94.543a1 1 0 0 1 .051 1.7l-3.315 2.19a1.809 1.809 0 0 1-2.657-.793c-.426.081-.859.123-1.29.123h-.407c-.418 0-.837-.04-1.25-.115a1.81 1.81 0 0 1-1.925 1.07l-3.93-.582a1 1 0 0 1-.672-1.563l.623-.89-.174-.984a1 1 0 0 1 .811-1.159l.259-.045c-.284-.968-.252-2.001-.01-2.974.199-.793.536-1.46.858-2.021l.268-.457C7.577 10.575 8 9.847 8 9V6a4 4 0 0 1 4-4ZM8.095 18.18a1 1 0 0 1-.444.29l-.13.032-.409.071.072.408a1 1 0 0 1-.05.528l-.055.122 1.958.29-.942-1.74Zm8.948-.425-.4.107-.133.026a1 1 0 0 1-.397-.03l-.126-.044-.119 1.976 1.652-1.09-.102-.088a1 1 0 0 1-.224-.33l-.044-.127-.107-.4Zm-2.464-8.032c-.316.306-.655.584-.979.827-.386.29-.769.542-1.1.747l-.371.223c-.224.13-.45.258-.68.374a1.002 1.002 0 0 1-1.156-.187 8.087 8.087 0 0 1-.365-.4l-.206-.248a10.722 10.722 0 0 1-.114-.144c-.177.429-.392.81-.597 1.16l-.151.254c-.389.656-.712 1.201-.89 1.913-.09.362-.145.742-.13 1.116a.998.998 0 0 1 1.178.345l.068.109 1.586 2.929c.419.139.869.226 1.34.251l.285.008h.406c.317 0 .626-.028.924-.081l.293-.062.167-2.77a1 1 0 0 1 1.382-.864l.116.057.94.543.61-.164c.063-.471.01-.956-.105-1.417-.141-.564-.446-1.083-.765-1.58l-.317-.489c-.505-.788-1.005-1.585-1.369-2.45Zm-3.244-1.598a1 1 0 0 0-.445.055l-.104.045-.4.2.136.261c.096.174.2.344.31.51.134.2.268.381.39.537.34-.201.76-.47 1.178-.783l.276-.214.262-.22-1.463-.366-.14-.025ZM12 4a2 2 0 0 0-2 2v.385a3 3 0 0 1 1.96-.176l2.04.51V6A2 2 0 0 0 12 4Z"/></g></svg>
